X: 22
T:Le mois de mai
T:Laride
S:from record Dir Hir Tan: Celtic Songs From Brittany (Ariane Segal)
O:France, Brittany
L:1/8
M:2/4
Q:1/4=120
K:Em
|  "Em"z2 EF    |: G2 E2   | "D"F2 "Em"EF| G2 E2           |[1 "D"F2 "Em"EF :|[2 "D"F2 z2|
|: "Em"E2 "D"F2 | "Em"B2 BA|GF G2        | "D"F2 "Em"E2    :|\
|: "D"z2 "Em"G2 | FE  "D"F2| FA "Em"G2   |  "D"F2  "Em"E2  :|
